X: 182
T: A Fig For A Kiss
R: slip jig
M: 9/8
K: Edorian
F|G2B E2B BAG|FGA D2A AGF|GAB E2B BAG|BdB AGF E2F|
G2B e2B BAG|FGA D2A AGF|GAB E2B BAG|BdB AGF E2f||
g2e g2e edB|f2d dcd fga|g2e g2e edB|dBG GBd e2f|
g2e g2e edB|f2d dcd fga|gfe agf edc|BdB AGF E2||

